X:1
T:I Will Confess Him
T:I Will Confess Him
T:James Ellsworth Delmarter
T:Frank M. Dyer, 1905
T:Public Domain Courtesy of the Cyber Hymnal™
C:James Ellsworth Delmarter
Z:Public Domain
Z:Courtesy of the Cyber Hymnal™
%%score ( 1 2 ) ( 3 4 )
L:1/8
Q:1/4=95
M:3/4
K:C
V:1 treble 
V:2 treble 
V:3 bass 
V:4 bass 
V:1
 [CE][DF] | [EG]3 [EG] [^D^F][EG] | [CE]4 [EG][EG] | [FA]3 [FA] [Ac][FA] | [EG]4 [CE][DF] | %5
w: 1.~I have|heard the still small|voice, Deal- ing|with my in- most|soul, Face to|
w: 2.~He has|sought me ma- ny|years, Track- ing|me in all my|sin, Shed for|
w: 3.~In my|soul the fight is|on— Sa- tan|wants to keep me|still; But to|
w: 4.~I con-|fess Thee now my|Lord. Thou hast|won me by Thy|love. I will|
 [EG]3 [EG] [Ec][GB] | [FA]4 [Fc][FA] | [EG][Gc] [Fc]2 [FB]2 | [Ec]4 || %9
w: face with life’s great|choice: Shall the|Sav- ior make me|whole?|
w: me His blood and|tears; Now He|cries, “O let Me|in.”|
w: him, I cry, “Be-|gone!” Je- sus,|now pos- sess my|will.|
w: now pro- claim Thy|word Till with|Thee in Heav’n a-|bove.|
[M:9/8]"^Refrain" [EG][FA][FB] | [Ec]3 [EG]3 [CE][DF][EG] | [FA]3 [Fc]3 [Ac][GB][FA] | %12
w: |||
w: |||
w: |||
w: |||
 [^Fd]3 [FA]3 [Fc][FB][FA] | G3 !fermata![FG]3 [EG][FA][FB] | [Ec]3 [EG]3 [CE][DF][EG] | %15
w: |||
w: |||
w: |||
w: |||
 [FA]3 [Fc]3 [Ac][GB][FA] | [EG]3 !fermata![Gc]2 [Gc] [Fd][FA][FB] | c6 |] %18
w: |||
w: |||
w: |||
w: |||
V:2
 x2 | x6 | x6 | x6 | x6 | x6 | x6 | x6 | x4 ||[M:9/8] x3 | x9 | x9 | x9 | G3- x6 | x9 | x9 | x9 | %17
 (E3 F3) |] %18
V:3
 [C,G,][C,G,] | [C,C]3 [C,C] [C,C][C,C] | [C,G,]4 [C,C][C,C] | [F,C]3 [F,C] [F,C][F,C] | %4
w: ||||
 [C,C]4 [C,G,][C,G,] | [C,C]3 [C,C] [C,G,][E,C] | [F,C]4 [F,A,][F,C] | [G,C][E,G,] [D,A,]2 G,2 | %8
w: |||* * * I|
 [C,G,]4 ||[M:9/8] [C,C][C,C][C,C] | [C,G,]3 [C,C]3 [C,G,][C,G,][C,C] | %11
w: |will con- fess|Him, Je- sus my Sav-|
 [F,C]3 [F,A,]3 F,[F,G,][F,A,] | [D,A,]3 [D,D]3 [D,E][D,D][D,C] | %13
w: ior, Je- sus who died|for sin- ners like me;|
 !fermata![G,B,]6 [C,C][C,C][C,C] | [C,G,]3 [C,C]3 [C,G,][C,G,][C,C] | %15
w: Why should I doubt,|And why should I wa-|
 [F,C]3 [F,A,]3 [F,A,][F,B,][F,C] | [G,C]3 !fermata![E,G,]2 [E,C] [D,B,][G,C][G,D] | [C,C]6 |] %18
w: ver? I will con- fess|Him, my Sav- ior is He.||
V:4
 x2 | x6 | x6 | x6 | x6 | x6 | x6 | x4 G,2 | x4 ||[M:9/8] x3 | x9 | x6 F, x2 | x9 | x9 | x9 | x9 | %16
 x9 | x6 |] %18

